boxicons/svg/solid/bxs-spreadsheet.svg

<svg xmlns="http://www.w3.org/2000/svg" width="24" height="24" viewBox="0 0 24 24"><path d="M3,5v14c0,1.104,0.896,2,2,2h14c1.104,0,2-0.896,2-2V5c0-1.104-0.896-2-2-2H5C3.896,3,3,3.896,3,5z M10,7h8v2h-8V7z M10,11 h8v2h-8V11z M10,15h8v2h-8V15z M6,7h2v2H6V7z M6,11h2v2H6V11z M6,15h2v2H6V15z"/></svg>

<svg xmlns="http://www.w3.org/2000/svg" width="24" height="24" viewBox="0 0 24 24"><path d="M3 5v14a2 2 0 0 0 2 2h14a2 2 0 0 0 2-2V5a2 2 0 0 0-2-2H5a2 2 0 0 0-2 2zm7 2h8v2h-8V7zm0 4h8v2h-8v-2zm0 4h8v2h-8v-2zM6 7h2v2H6V7zm0 4h2v2H6v-2zm0 4h2v2H6v-2z"/></svg>
